packages/core/src/svgs/networks/mono/matic.svg

<svg width="24" height="24" viewBox="0 0 24 24" fill="none" xmlns="http://www.w3.org/2000/svg">
<path d="M6.11625 9.01304L3.0834 7.46875C2.84543 7.93457 2.64543 8.42317 2.4834 8.92189L5.72133 9.96998C5.82765 9.64086 5.95929 9.31936 6.11625 9.01304Z" fill="white"/>
<path d="M8.69103 6.29104L10.3695 9.18467C10.6151 9.04289 10.8784 8.93403 11.1492 8.86062L10.2809 5.63029C10.5011 5.57207 10.7265 5.52143 10.9542 5.48599L10.4201 2.12402C9.90363 2.20503 9.38976 2.32908 8.89357 2.4911L9.9315 5.67586C9.59988 5.78472 9.27837 5.9189 8.96952 6.07586L7.44549 3.09616C6.9822 3.33413 6.53158 3.61007 6.11133 3.91893L8.11636 6.66572C8.30117 6.53155 8.49358 6.4075 8.69103 6.29104Z" fill="white"/>
<path d="M17.7062 8.68869L14.8125 10.3697C14.9542 10.6153 15.0657 10.8785 15.1391 11.1494L18.3694 10.2785C18.4302 10.4988 18.4783 10.724 18.5137 10.9494L21.8758 10.4153C21.7948 9.89881 21.6706 9.38488 21.5061 8.88869L18.3238 9.93168C18.2151 9.60006 18.0808 9.27854 17.9238 8.9697L20.9035 7.4406C20.6657 6.97732 20.3897 6.5267 20.0808 6.10645L17.334 8.11401C17.4657 8.29882 17.5897 8.49122 17.7062 8.68869Z" fill="white"/>
<path d="M16.5261 3.08046C16.0602 2.84249 15.5716 2.64249 15.0728 2.48047L14.0273 5.71839C14.3538 5.82471 14.6755 5.95636 14.9842 6.11332L16.5261 3.08046Z" fill="white"/>
<path d="M15.3159 6.23257L13.6172 9.18189C13.8627 9.32366 14.0906 9.49834 14.2906 9.69835L19.0551 4.91613C18.6855 4.54653 18.2829 4.20476 17.8626 3.89844L15.8981 6.60978C15.7108 6.47307 15.5184 6.3465 15.3159 6.23257Z" fill="white"/>
<path d="M6.23298 8.67823L9.17977 10.3795C9.32154 10.1338 9.49621 9.9061 9.69626 9.70348L4.91907 4.93652C4.54946 5.30613 4.2077 5.70866 3.90137 6.1289L6.61018 8.09596C6.47601 8.2833 6.34943 8.47824 6.23298 8.67823Z" fill="white"/>
<path d="M13.0307 5.42779L13.5446 2.11899C13.0358 2.0405 12.5169 2 11.9979 2H11.9902V8.74925H11.9979C12.2814 8.74925 12.5648 8.7847 12.8358 8.85811L13.7092 5.56956C13.4865 5.5088 13.2611 5.46323 13.0307 5.42779Z" fill="white"/>
<path d="M8.85811 11.162L5.56956 10.2861C5.51133 10.5089 5.46323 10.7368 5.42779 10.9645L2.11899 10.4481C2.0405 10.957 2 11.481 2 12H8.74925C8.74925 11.7139 8.78722 11.4329 8.85811 11.162Z" fill="white"/>
<path d="M17.8838 14.9873L20.9167 16.5315C21.1546 16.0657 21.3546 15.5771 21.5167 15.0784L18.2788 14.0303C18.1724 14.3594 18.0408 14.6809 17.8838 14.9873Z" fill="white"/>
<path d="M15.3068 17.7062L13.6284 14.8125C13.3827 14.9542 13.1195 15.0631 12.8486 15.1366L13.717 18.3669C13.4967 18.4252 13.2714 18.4758 13.0435 18.5112L13.5777 21.8731C14.0941 21.7921 14.6081 21.6681 15.1042 21.5061L14.0664 18.3213C14.398 18.2124 14.7195 18.0783 15.0283 17.9213L16.5548 20.901C17.0182 20.663 17.4688 20.3872 17.889 20.0783L15.884 17.329C15.6992 17.4682 15.5068 17.5922 15.3068 17.7062Z" fill="white"/>
<path d="M6.29358 15.3118L9.18719 13.6284C9.04543 13.3827 8.93403 13.1195 8.86062 12.8486L5.63029 13.7195C5.56954 13.4992 5.52144 13.2739 5.48599 13.0486L2.12402 13.5827C2.20503 14.0992 2.32908 14.6131 2.49364 15.1093L5.67586 14.0689C5.78472 14.398 5.9189 14.722 6.07586 15.0308L3.09616 16.5599C3.33413 17.0232 3.61007 17.4738 3.91893 17.894L6.66572 15.8866C6.53407 15.7017 6.41003 15.5093 6.29358 15.3118Z" fill="white"/>
<path d="M7.47363 20.9186C7.93945 21.1566 8.42805 21.3566 8.92678 21.5186L9.9723 18.2806C9.64581 18.1742 9.32424 18.0426 9.01538 17.8857L7.47363 20.9186Z" fill="white"/>
<path d="M8.68058 17.7666L10.3793 14.8173C10.1337 14.6755 9.90592 14.5008 9.70593 14.3008L4.94141 19.0829C5.31101 19.4526 5.71354 19.7943 6.13379 20.1007L8.09832 17.3894C8.28565 17.5235 8.48058 17.6501 8.68058 17.7666Z" fill="white"/>
<path d="M17.764 15.3213L14.8173 13.6201C14.6755 13.8657 14.5008 14.0935 14.3008 14.2961L19.0805 19.063C19.4501 18.6934 19.7918 18.2909 20.0982 17.8707L17.3894 15.9036C17.5235 15.7137 17.6501 15.5213 17.764 15.3213Z" fill="white"/>
<path d="M11.1614 15.1416L10.2881 18.4302C10.5108 18.4884 10.7387 18.5365 10.9666 18.5719L10.4526 21.8807C10.9614 21.9592 11.4804 21.9997 11.9994 21.9997H12.0071V15.2505H11.9994C11.7159 15.2505 11.4323 15.2125 11.1614 15.1416Z" fill="white"/>
<path d="M15.2505 12C15.2505 12.2861 15.2151 12.5671 15.1416 12.838L18.4302 13.7138C18.4884 13.4911 18.5365 13.2632 18.5719 13.0355L21.8807 13.5518C21.9592 13.043 21.9997 12.519 21.9997 12H15.2505Z" fill="white"/>
</svg>

<svg xmlns="http://www.w3.org/2000/svg" width="24" height="24" fill="none" viewBox="0 0 24 24">
    <path fill="#fff" d="M6.116 9.013 3.083 7.469a10 10 0 0 0-.6 1.453L5.721 9.97q.16-.496.395-.957m2.575-2.722 1.678 2.894c.246-.142.51-.251.78-.324l-.868-3.23c.22-.059.445-.11.673-.145l-.534-3.362a10 10 0 0 0-1.526.367L9.93 5.676a7 7 0 0 0-.961.4l-1.525-2.98a10 10 0 0 0-1.334.823l2.005 2.747a7 7 0 0 1 .575-.375m9.016 2.398-2.893 1.68c.141.246.253.51.326.78l3.23-.87q.092.331.145.67l3.362-.534a9.6 9.6 0 0 0-.37-1.526l-3.182 1.043a7 7 0 0 0-.4-.962l2.98-1.53a10 10 0 0 0-.823-1.334l-2.747 2.008q.198.278.372.575m-1.18-5.609a10 10 0 0 0-1.453-.6l-1.046 3.238c.327.107.649.238.957.395zm-1.21 3.153-1.699 2.949c.246.142.474.316.674.516l4.764-4.782c-.37-.37-.772-.711-1.192-1.018L15.898 6.61a6 6 0 0 0-.582-.377M6.233 8.678 9.18 10.38c.142-.245.316-.473.516-.676L4.92 4.937c-.37.37-.711.772-1.018 1.192l2.71 1.967a7 7 0 0 0-.378.582m6.796-3.25.515-3.309A10 10 0 0 0 11.998 2h-.008v6.75h.008c.283 0 .567.035.838.108l.873-3.288a6 6 0 0 0-.678-.142m-4.173 5.734-3.288-.876q-.089.335-.142.678l-3.309-.516A10 10 0 0 0 2 12h6.75q0-.43.108-.838m9.026 3.825 3.033 1.545a10 10 0 0 0 .6-1.454l-3.238-1.048q-.16.496-.395.957m-2.577 2.719-1.679-2.893c-.245.141-.508.25-.78.324l.869 3.23c-.22.058-.446.109-.674.144l.535 3.362a10 10 0 0 0 1.526-.367l-1.038-3.185q.498-.164.962-.4l1.527 2.98a10 10 0 0 0 1.334-.823l-2.005-2.749q-.277.208-.577.377m-9.013-2.394 2.893-1.684a3.3 3.3 0 0 1-.326-.78l-3.23.871a6 6 0 0 1-.145-.67l-3.362.534a9.6 9.6 0 0 0 .37 1.526l3.182-1.04c.109.329.243.653.4.962l-2.98 1.529c.238.463.514.914.823 1.334l2.747-2.007a8 8 0 0 1-.372-.575m1.18 5.607c.465.238.954.438 1.453.6l1.045-3.238a7 7 0 0 1-.957-.395zm1.206-3.152 1.7-2.95a3.3 3.3 0 0 1-.674-.516L4.94 19.083c.37.37.773.711 1.193 1.018l1.964-2.712q.283.202.583.378m9.084-2.446-2.947-1.7a3.4 3.4 0 0 1-.516.675l4.78 4.767c.37-.37.71-.772 1.017-1.192l-2.709-1.967q.203-.284.375-.583m-6.603-.179-.873 3.288q.335.088.679.142l-.514 3.309a10 10 0 0 0 1.546.119h.008v-6.75H12a3.3 3.3 0 0 1-.838-.108M15.25 12q0 .43-.108.838l3.288.876q.088-.335.142-.678l3.309.516c.078-.509.119-1.033.119-1.552z"/>
</svg>
